groups/amino_sidechains/arginine.svg

<?xml version='1.0' encoding='iso-8859-1'?>
<svg version='1.1' baseProfile='full'
              xmlns='http://www.w3.org/2000/svg'
                      xmlns:rdkit='http://www.rdkit.org/xml'
                      xmlns:xlink='http://www.w3.org/1999/xlink'
                  xml:space='preserve'
width='256px' height='256px' viewBox='0 0 256 256'>
<!-- END OF HEADER -->
<rect style='opacity:1.0;fill:#FFFFFF;stroke:none' width='256.0' height='256.0' x='0.0' y='0.0'> </rect>
<path class='bond-0 atom-0 atom-1' d='M 22.0,143.7 L 53.7,125.3' style='fill:none;fill-rule:evenodd;stroke:#000000;stroke-width:2.0px;stroke-linecap:butt;stroke-linejoin:miter;stroke-opacity:1' />
<path class='bond-1 atom-1 atom-2' d='M 53.7,125.3 L 85.4,143.6' style='fill:none;fill-rule:evenodd;stroke:#000000;stroke-width:2.0px;stroke-linecap:butt;stroke-linejoin:miter;stroke-opacity:1' />
<path class='bond-2 atom-2 atom-3' d='M 85.4,143.6 L 117.1,125.2' style='fill:none;fill-rule:evenodd;stroke:#000000;stroke-width:2.0px;stroke-linecap:butt;stroke-linejoin:miter;stroke-opacity:1' />
<path class='bond-3 atom-3 atom-4' d='M 117.1,125.2 L 141.1,139.0' style='fill:none;fill-rule:evenodd;stroke:#000000;stroke-width:2.0px;stroke-linecap:butt;stroke-linejoin:miter;stroke-opacity:1' />
<path class='bond-4 atom-4 atom-5' d='M 156.7,138.9 L 180.6,125.1' style='fill:none;fill-rule:evenodd;stroke:#000000;stroke-width:2.0px;stroke-linecap:butt;stroke-linejoin:miter;stroke-opacity:1' />
<path class='bond-5 atom-5 atom-6' d='M 183.3,126.6 L 183.3,100.6' style='fill:none;fill-rule:evenodd;stroke:#000000;stroke-width:2.0px;stroke-linecap:butt;stroke-linejoin:miter;stroke-opacity:1' />
<path class='bond-5 atom-5 atom-6' d='M 177.8,126.7 L 177.8,100.6' style='fill:none;fill-rule:evenodd;stroke:#000000;stroke-width:2.0px;stroke-linecap:butt;stroke-linejoin:miter;stroke-opacity:1' />
<path class='bond-6 atom-5 atom-7' d='M 180.6,125.1 L 204.6,138.8' style='fill:none;fill-rule:evenodd;stroke:#000000;stroke-width:2.0px;stroke-linecap:butt;stroke-linejoin:miter;stroke-opacity:1' />
<path d='M 52.1,126.2 L 53.7,125.3 L 55.3,126.2' style='fill:none;stroke:#000000;stroke-width:2.0px;stroke-linecap:butt;stroke-linejoin:miter;stroke-miterlimit:10;stroke-opacity:1;' />
<path d='M 83.9,142.7 L 85.4,143.6 L 87.0,142.6' style='fill:none;stroke:#000000;stroke-width:2.0px;stroke-linecap:butt;stroke-linejoin:miter;stroke-miterlimit:10;stroke-opacity:1;' />
<path d='M 115.5,126.1 L 117.1,125.2 L 118.3,125.9' style='fill:none;stroke:#000000;stroke-width:2.0px;stroke-linecap:butt;stroke-linejoin:miter;stroke-miterlimit:10;stroke-opacity:1;' />
<path d='M 179.4,125.8 L 180.6,125.1 L 181.8,125.7' style='fill:none;stroke:#000000;stroke-width:2.0px;stroke-linecap:butt;stroke-linejoin:miter;stroke-miterlimit:10;stroke-opacity:1;' />
<path class='atom-1' d='M31.1834,159.537 C32.3718,158.848 31.4526,157.263 30.2642,157.953 C29.0759,158.642 28.1567,157.058 29.3451,156.368 C30.5334,155.679 29.6143,154.094 28.4259,154.784 C27.2376,155.473 26.3184,153.889 27.5067,153.199 C28.6951,152.51 27.7759,150.925 26.5876,151.615 C25.3992,152.304 24.48,150.72 25.6684,150.03 C26.8567,149.341 25.9376,147.756 24.7492,148.446 C23.5609,149.135 22.6417,147.551 23.8301,146.861 C25.0184,146.172 24.0992,144.588 22.9109,145.277 C21.7225,145.966 20.8034,144.382 21.9917,143.692 C23.1801,143.003 22.2609,141.419 21.0725,142.108 C19.8842,142.797 18.965,141.213 20.1534,140.524 C21.3417,139.834 20.4226,138.25 19.2342,138.939 C18.0458,139.628 17.1267,138.044 18.315,137.355 C19.5034,136.665 18.5842,135.081 17.3959,135.77 C16.2075,136.46 15.2883,134.875 16.4767,134.186 C17.665,133.496 16.7459,131.912 15.5575,132.601 C14.3692,133.291 13.45,131.706 14.6383,131.017 C15.8267,130.327 14.9075,128.743 13.7192,129.432 C12.5308,130.122 11.6116,128.537 12.8,127.848' style='fill:none;stroke:#7F7F7F;stroke-width:2.0px;stroke-linecap:butt;stroke-linejoin:miter;stroke-opacity:1' />
<text x='142.3' y='154.4' class='atom-4' style='font-size:21px;font-style:normal;font-weight:normal;fill-opacity:1;stroke:none;font-family:sans-serif;text-anchor:start;fill:#000000' >N</text>
<text x='142.3' y='173.8' class='atom-4' style='font-size:21px;font-style:normal;font-weight:normal;fill-opacity:1;stroke:none;font-family:sans-serif;text-anchor:start;fill:#000000' >H</text>
<text x='173.9' y='99.4' class='atom-6' style='font-size:21px;font-style:normal;font-weight:normal;fill-opacity:1;stroke:none;font-family:sans-serif;text-anchor:start;fill:#000000' >N</text>
<text x='189.1' y='99.4' class='atom-6' style='font-size:21px;font-style:normal;font-weight:normal;fill-opacity:1;stroke:none;font-family:sans-serif;text-anchor:start;fill:#000000' >H</text>
<text x='204.3' y='108.2' class='atom-6' style='font-size:14px;font-style:normal;font-weight:normal;fill-opacity:1;stroke:none;font-family:sans-serif;text-anchor:start;fill:#000000' >2</text>
<text x='204.3' y='90.6' class='atom-6' style='font-size:14px;font-style:normal;font-weight:normal;fill-opacity:1;stroke:none;font-family:sans-serif;text-anchor:start;fill:#000000' >+</text>
<text x='205.8' y='154.3' class='atom-7' style='font-size:21px;font-style:normal;font-weight:normal;fill-opacity:1;stroke:none;font-family:sans-serif;text-anchor:start;fill:#000000' >N</text>
<text x='220.9' y='154.3' class='atom-7' style='font-size:21px;font-style:normal;font-weight:normal;fill-opacity:1;stroke:none;font-family:sans-serif;text-anchor:start;fill:#000000' >H</text>
<text x='236.1' y='163.1' class='atom-7' style='font-size:14px;font-style:normal;font-weight:normal;fill-opacity:1;stroke:none;font-family:sans-serif;text-anchor:start;fill:#000000' >2</text>
</svg>

<svg height="256" viewBox="0 0 256 256" width="256" xmlns="http://www.w3.org/2000/svg"><path d="m0 0h256v256h-256z" fill="#fff"/><g fill="none" stroke-width="2"><path d="m22 143.7 31.7-18.4" stroke="#000"/><path d="m53.7 125.3 31.7 18.3" stroke="#000"/><path d="m85.4 143.6 31.7-18.4" stroke="#000"/><path d="m117.1 125.2 24 13.8" stroke="#000"/><path d="m156.7 138.9 23.9-13.8" stroke="#000"/><path d="m183.3 126.6v-26" stroke="#000"/><path d="m177.8 126.7v-26.1" stroke="#000"/><path d="m180.6 125.1 24 13.7" stroke="#000"/><path d="m52.1 126.2 1.6-.9 1.6.9" stroke="#000" stroke-miterlimit="10"/><path d="m83.9 142.7 1.5.9 1.6-1" stroke="#000" stroke-miterlimit="10"/><path d="m115.5 126.1 1.6-.9 1.2.7" stroke="#000" stroke-miterlimit="10"/><path d="m179.4 125.8 1.2-.7 1.2.6" stroke="#000" stroke-miterlimit="10"/><path d="m31.183 159.537c1.189-.689.27-2.274-.919-1.584-1.188.689-2.107-.895-.919-1.585 1.188-.689.269-2.274-.919-1.584-1.188.689-2.108-.895-.919-1.585 1.188-.689.269-2.274-.919-1.584-1.189.689-2.108-.895-.92-1.585 1.189-.689.27-2.274-.919-1.584-1.188.689-2.107-.895-.919-1.585 1.188-.689.269-2.273-.919-1.584s-2.108-.895-.919-1.585c1.188-.689.269-2.273-.919-1.584-1.189.689-2.108-.895-.92-1.584 1.189-.69.27-2.274-.919-1.585-1.188.689-2.107-.895-.919-1.584 1.188-.69.269-2.274-.919-1.585-1.188.69-2.108-.895-.919-1.584 1.188-.69.269-2.274-.919-1.585-1.189.69-2.108-.895-.92-1.584 1.189-.69.27-2.274-.919-1.585-1.188.69-2.107-.895-.919-1.584" stroke="#7f7f7f"/></g><text font-family="sans-serif" font-size="21" x="142.3" y="154.4">N</text><text font-family="sans-serif" font-size="21" x="142.3" y="173.8">H</text><text font-family="sans-serif" font-size="21" x="173.9" y="99.4">N</text><text font-family="sans-serif" font-size="21" x="189.1" y="99.4">H</text><text font-family="sans-serif" font-size="14" x="204.3" y="108.2">2</text><text font-family="sans-serif" font-size="14" x="204.3" y="90.6">+</text><text font-family="sans-serif" font-size="21" x="205.8" y="154.3">N</text><text font-family="sans-serif" font-size="21" x="220.9" y="154.3">H</text><text font-family="sans-serif" font-size="14" x="236.1" y="163.1">2</text></svg>
